X:9
T:Flowers of the Forest, The
T:(Modern Air)
C:arr. Carlo Minasi
M:C
L:1/8
B:Chappell's One Hundred Scotch Melodies
B:Arranged for the Concertina by Carlo Minasi
Q:"Adagio  "1/4=70
Z:Peter Dunk 2012
K:Bb
!p!F2 (FG) (FG) (Bc/d/)|(edcB) (GB) {G}(FD)|\
(3CDF (F>G) (FG) !crescendo(!(Bc/d//e//)!crescendo)!|
d2 ([cE]>[BD]) [B2D2]z2|!p!_A2 (A/c/B/A/) (3FGB|\
(FdcB) (GB) (3GFD|_A2 (A/c/B/A/) (3FGB|
(Fd) {d/}(c>B) B2 z2|([dB] [fd])([fd]>[ge]) ([ge][fd][ec][dB])|\
(c/d/e/d/) {d/}c>B B3 c|([dB][fd])([fd]>[ge]) ([ge][fd][ec][dB])|
([fd][dB]){d/}(c>B) (GB) (3GFD|(3CDF F>G (FG)\
!crescendo(! (Bc/d/e/)!crescendo)!|\
[d2F2] ([cFE]>B) [B2F2D2]z2|]

